X:1
T:The First Noel
M:3/4
L:1/4
K:C
E/2-D/2| C3/2- D/2E/2-F/2| G2A/2-B/2| c B A| G3/2 z/2 A/2B/2| c B A|\
 G A B| c G F| E2E/2-D/2| C3/2- D/2E/2 F/2| G2-A/2-B/2| c B A| G3/2 z/2 A/2B/2|\
 c B A| G- A B| c- G F| E2E/2-D/2| C3/2- D/2E/2-F/2| G2c/2-B/2| A3/2- B/2c/2-A/2|\
 G- A- B| c B A| G- A B| c- G F| E2||
